; generated by PrusaSlicer 2.4.0+x64 on 2022-02-28 at 17:10:36 UTC

; 

; external perimeters extrusion width = 0.60mm
; perimeters extrusion width = 0.50mm
; infill extrusion width = 0.50mm
; solid infill extrusion width = 0.50mm
; top infill extrusion width = 0.45mm
; first layer extrusion width = 0.42mm

M73 P0 R59
M73 Q0 S59
M201 X1000 Y1000 Z200 E5000 ; sets maximum accelerations, mm/sec^2
M203 X200 Y200 Z12 E120 ; sets maximum feedrates, mm/sec
M204 P1250 R1250 T1250 ; sets acceleration (P, T) and retract acceleration (R), mm/sec^2
M205 X8.00 Y8.00 Z0.40 E4.50 ; sets the jerk limits, mm/sec
M205 S0 T0 ; sets the minimum extruding and travel feed rate, mm/sec
M107
;TYPE:Custom
M862.3 P "MK3S" ; printer model check
M862.1 P0.4 ; nozzle diameter check
M115 U3.10.1 ; tell printer latest fw version
G90 ; use absolute coordinates
M83 ; extruder relative mode
M104 S215 ; set extruder temp
M140 S60 ; set bed temp
M190 S60 ; wait for bed temp
M109 S215 ; wait for extruder temp
G28 W ; home all without mesh bed level
G80 ; mesh bed leveling
G1 Z0.2 F720
G1 Y-3 F1000 ; go outside print area
G92 E0
G1 X60 E9 F1000 ; intro line
G1 X100 E12.5 F1000 ; intro line
G92 E0
M221 S95

; Don't change E values below. Excessive value can damage the printer.

M907 E538 ; set extruder motor current
G21 ; set units to millimeters
G90 ; use absolute coordinates
M83 ; use relative distances for extrusion
M900 K0.05 ; Filament gcode LA 1.5
M900 K30 ; Filament gcode LA 1.0
M107
;LAYER_CHANGE
;Z:0.2
;HEIGHT:0.2
;BEFORE_LAYER_CHANGE
G92 E0.0
;0.2


G1 E-.8 F2100
G1 Z.4 F720
;AFTER_LAYER_CHANGE
;0.2
G1 X49.06 Y79.481 F10800
G1 Z.2 F720
G1 E.8 F2100
M204 S800
;TYPE:Skirt/Brim
;WIDTH:0.42
G1 F1200
G1 X50 Y79.287 E.03008
G1 X130.098 Y79.289 E2.51142
G1 X131.808 Y79.368 E.05367
G1 X133.506 Y79.588 E.05367
G1 X135.179 Y79.947 E.05367
G1 X136.818 Y80.443 E.05367
G1 X138.409 Y81.073 E.05367
G1 X139.944 Y81.832 E.05367
G1 X141.41 Y82.715 E.05367
G1 X142.798 Y83.717 E.05367
G1 X144.099 Y84.829 E.05367
G1 X145.304 Y86.045 E.05367
G1 X146.404 Y87.357 E.05367
G1 X147.392 Y88.754 E.05367
G1 X148.261 Y90.229 E.05367
G1 X149.006 Y91.771 E.05367
G1 X149.621 Y93.368 E.05367
G1 X150.226 Y95.605 E.07267
G1 X150.632 Y98.192 E.08209
G1 X150.711 Y99.902 E.05367
G1 X150.648 Y101.612 E.05367
G1 X150.445 Y103.312 E.05367
G1 X150.101 Y104.989 E.05367
G1 X149.621 Y106.632 E.05367
G1 X149.006 Y108.229 E.05367
G1 X148.261 Y109.771 E.05367
G1 X147.392 Y111.246 E.05367
G1 X146.404 Y112.643 E.05367
G1 X145.304 Y113.955 E.05367
G1 X144.099 Y115.171 E.05367
G1 X142.798 Y116.283 E.05367
G1 X141.41 Y117.285 E.05367
G1 X139.944 Y118.168 E.05367
G1 X138.409 Y118.927 E.05367
G1 X136.818 Y119.557 E.05367
G1 X134.989 Y120.101 E.05983
G1 X133.312 Y120.445 E.05367
G1 X131.808 Y120.632 E.04752
G1 X130 Y120.713 E.05675
G1 X50 Y120.713 E2.50834
G1 X48.693 Y120.321 E.04278
G1 X47.817 Y119.276 E.04278
G1 X47.623 Y118.336 E.03008
G1 X47.623 Y81.664 E1.14981
G1 X48.015 Y80.357 E.04278
M73 P0 R58
G1 X49.014 Y79.519 E.0409
M204 S1000
; printing object week_5_final_version v1 id:0 copy 0
;WIPE_START
G1 F8640
G1 X50 Y79.287 E-.23384
G1 X52.279 Y79.287 E-.52616
;WIPE_END
G1 E-.04 F2100
G1 Z.6 F720
G1 X51.187 Y83.725 F10800
G1 Z.2 F720
G1 E.8 F2100
M204 S800
;TYPE:Perimeter
G1 F1200
G1 X129.984 Y83.725 E2.47061
G1 X131.344 Y83.782 E.04268
G1 X132.679 Y83.948 E.04217
G1 X133.995 Y84.224 E.04217
G1 X135.284 Y84.608 E.04217
G1 X136.537 Y85.097 E.04217
G1 X137.746 Y85.687 E.04217
G1 X138.901 Y86.376 E.04217
G1 X139.996 Y87.158 E.04217
G1 X141.022 Y88.027 E.04217
G1 X141.973 Y88.978 E.04217
G1 X142.842 Y90.004 E.04217
G1 X143.624 Y91.099 E.04217
G1 X144.313 Y92.254 E.04217
G1 X144.903 Y93.463 E.04217
G1 X145.392 Y94.716 E.04217
G1 X145.776 Y96.005 E.04217
G1 X146.052 Y97.321 E.04217
G1 X146.218 Y98.656 E.04217
G1 X146.274 Y100 E.04217
G1 X146.218 Y101.344 E.04217
G1 X146.052 Y102.679 E.04217
G1 X145.776 Y103.995 E.04217
G1 X145.392 Y105.284 E.04217
G1 X144.903 Y106.537 E.04217
G1 X144.313 Y107.746 E.04217
G1 X143.624 Y108.901 E.04217
G1 X142.842 Y109.996 E.04217
G1 X141.973 Y111.022 E.04217
G1 X141.022 Y111.973 E.04217
G1 X139.996 Y112.842 E.04217
G1 X138.901 Y113.624 E.04217
G1 X137.746 Y114.313 E.04217
G1 X136.537 Y114.903 E.04217
G1 X135.284 Y115.392 E.04217
G1 X133.995 Y115.776 E.04217
G1 X132.679 Y116.052 E.04217
G1 X131.344 Y116.218 E.04217
G1 X129.984 Y116.275 E.04268
G1 X50.787 Y116.275 E2.48316
G1 X50.787 Y83.725 E1.02056
G1 X51.127 Y83.725 E.01066
M204 S1000
M73 Q0 S58
G1 X50.41 Y83.348 F10800
M204 S800
;TYPE:External perimeter
G1 F1200
G1 X129.992 Y83.348 E2.49522
G1 X131.375 Y83.405 E.04342
M73 P1 R58
M73 Q1 S58
G1 X132.741 Y83.576 E.04315
G1 X134.088 Y83.858 E.04315
G1 X135.407 Y84.251 E.04315
G1 X136.689 Y84.751 E.04315
G1 X137.925 Y85.356 E.04315
G1 X139.107 Y86.06 E.04315
G1 X140.228 Y86.86 E.04315
G1 X141.278 Y87.749 E.04315
G1 X142.251 Y88.722 E.04315
G1 X143.14 Y89.772 E.04315
G1 X143.94 Y90.893 E.04315
G1 X144.644 Y92.075 E.04315
G1 X145.249 Y93.311 E.04315
G1 X145.749 Y94.593 E.04315
G1 X146.142 Y95.912 E.04315
G1 X146.424 Y97.259 E.04315
G1 X146.595 Y98.625 E.04315
G1 X146.651 Y100 E.04315
G1 X146.595 Y101.375 E.04315
G1 X146.424 Y102.741 E.04315
G1 X146.142 Y104.088 E.04315
G1 X145.749 Y105.407 E.04315
G1 X145.249 Y106.689 E.04315
G1 X144.644 Y107.925 E.04315
G1 X143.94 Y109.107 E.04315
G1 X143.14 Y110.228 E.04315
G1 X142.251 Y111.278 E.04315
G1 X141.278 Y112.251 E.04315
G1 X140.228 Y113.14 E.04315
G1 X139.107 Y113.94 E.04315
G1 X137.925 Y114.644 E.04315
G1 X136.689 Y115.249 E.04315
G1 X135.407 Y115.749 E.04315
G1 X134.088 Y116.142 E.04315
G1 X132.741 Y116.424 E.04315
G1 X131.375 Y116.595 E.04315
G1 X129.992 Y116.652 E.04342
G1 X50.41 Y116.652 E2.49522
G1 X50.41 Y83.408 E1.04233
M204 S1000
G1 X50.807 Y83.401 F10800
;WIPE_START
G1 F8640
G1 X53.701 Y83.406 E-.76
;WIPE_END
G1 E-.04 F2100
G1 Z.6 F720
G1 X142.965 Y90.37 F10800
G1 Z.2 F720
G1 E.8 F2100
M204 S800
;TYPE:Solid infill
;WIDTH:0.420985
G1 F1200
G1 X140.825 Y88.231 E.09511
G1 X139.822 Y87.381 E.04134
G1 X138.746 Y86.613 E.04155
G1 X138.565 Y86.505 E.00665
G1 X143.495 Y91.435 E.21921
G1 X144.064 Y92.389 E.0349
G1 X144.206 Y92.681 E.01022
G1 X137.319 Y85.794 E.30621
G1 X136.297 Y85.307 E.03558
G1 X144.693 Y93.703 E.37328
G1 X145.036 Y94.58 E.02959
G1 X135.42 Y84.964 E.42747
G1 X135.192 Y84.875 E.0077
G1 X134.629 Y84.708 E.01847
G1 X145.292 Y95.371 E.47406
G1 X145.512 Y96.126 E.02472
G1 X133.874 Y84.488 E.51741
G1 X133.198 Y84.346 E.02173
G1 X145.654 Y96.802 E.55379
G1 X145.785 Y97.468 E.02133
G1 X132.532 Y84.215 E.58922
G1 X131.921 Y84.139 E.01935
G1 X145.861 Y98.079 E.61976
G1 X145.937 Y98.689 E.01932
G1 X131.311 Y84.063 E.65022
G1 X130.753 Y84.04 E.01755
G1 X145.96 Y99.247 E.67604
G1 X145.983 Y99.804 E.01755
G1 X130.196 Y84.017 E.70186
G1 X129.652 Y84.008 E.01709
G1 X145.977 Y100.333 E.72578
G1 X145.956 Y100.847 E.01615
G1 X129.117 Y84.008 E.7486
G1 X128.583 Y84.008 E.01681
G1 X145.932 Y101.357 E.7713
G1 X145.873 Y101.833 E.01506
G1 X128.048 Y84.008 E.79243
G1 X127.513 Y84.008 E.01681
G1 X145.813 Y102.308 E.81357
G1 X145.743 Y102.773 E.01477
G1 X126.979 Y84.008 E.83423
G1 X126.444 Y84.008 E.01681
G1 X145.651 Y103.215 E.85388
G1 X145.558 Y103.657 E.0142
G1 X125.909 Y84.008 E.87353
G1 X125.375 Y84.008 E.01681
G1 X145.454 Y104.087 E.89266
G1 X145.331 Y104.499 E.01351
G1 X124.84 Y84.008 E.91097
G1 X124.305 Y84.008 E.01681
G1 X145.208 Y104.911 E.92929
G1 X145.077 Y105.314 E.01333
M73 P2 R58
M73 Q2 S58
G1 X123.771 Y84.008 E.94722
G1 X123.236 Y84.008 E.01681
G1 X144.927 Y105.699 E.96432
G1 X144.777 Y106.083 E.01298
G1 X122.701 Y84.008 E.98142
G1 X122.167 Y84.008 E.01681
G1 X144.624 Y106.465 E.99838
G1 X144.448 Y106.824 E.01257
G1 X121.632 Y84.008 E1.01435
G1 X121.097 Y84.008 E.01681
G1 X144.273 Y107.183 E1.03031
G1 X144.097 Y107.542 E.01257
M73 P2 R57
G1 X120.563 Y84.008 E1.04628
G1 X120.028 Y84.008 E.01681
G1 X143.902 Y107.882 E1.06138
G1 X143.702 Y108.217 E.01226
G1 X119.493 Y84.008 E1.07627
G1 X118.959 Y84.008 E.01681
G1 X143.503 Y108.552 E1.09117
G1 X143.293 Y108.877 E.01216
G1 X118.424 Y84.008 E1.10563
G1 X117.889 Y84.008 E.01681
G1 X143.071 Y109.189 E1.1195
G1 X142.848 Y109.501 E.01205
M73 Q2 S57
G1 X117.355 Y84.008 E1.13337
G1 X116.82 Y84.008 E.01681
G1 X142.625 Y109.813 E1.14723
G1 X142.381 Y110.103 E.01193
G1 X116.285 Y84.008 E1.16013
G1 X115.751 Y84.008 E.01681
G1 X142.136 Y110.393 E1.173
G1 X141.89 Y110.682 E.01193
G1 X115.216 Y84.008 E1.18587
G1 X114.681 Y84.008 E.01681
G1 X141.634 Y110.961 E1.19826
G1 X141.367 Y111.228 E.01188
G1 X114.147 Y84.008 E1.21014
G1 X113.612 Y84.008 E.01681
G1 X141.1 Y111.496 E1.22203
G1 X140.832 Y111.763 E.01188
M73 P3 R57
M73 Q3 S57
G1 X113.077 Y84.008 E1.23391
G1 X112.543 Y84.008 E.01681
G1 X140.543 Y112.008 E1.24482
G1 X140.254 Y112.254 E.01193
G1 X112.008 Y84.008 E1.25572
G1 X111.473 Y84.008 E.01681
G1 X139.964 Y112.499 E1.26662
G1 X139.663 Y112.732 E.01198
G1 X110.939 Y84.008 E1.27701
G1 X110.404 Y84.008 E.01681
G1 X139.351 Y112.955 E1.28692
G1 X139.039 Y113.178 E.01205
G1 X109.869 Y84.008 E1.29682
G1 X109.335 Y84.008 E.01681
G1 X138.726 Y113.399 E1.30666
G1 X138.391 Y113.599 E.01226
G1 X108.8 Y84.008 E1.31553
G1 X108.265 Y84.008 E.01681
G1 X138.056 Y113.798 E1.32441
G1 X137.721 Y113.998 E.01226
G1 X107.731 Y84.008 E1.33328
G1 X107.196 Y84.008 E.01681
G1 X137.37 Y114.182 E1.34144
G1 X137.01 Y114.357 E.01257
G1 X106.661 Y84.008 E1.34924
G1 X106.127 Y84.008 E.01681
G1 X136.651 Y114.533 E1.35705
G1 X136.283 Y114.699 E.01271
G1 X105.592 Y84.008 E1.36444
G1 X105.057 Y84.008 E.01681
G1 X135.898 Y114.849 E1.37111
G1 X135.514 Y114.999 E.01298
M73 P3 R56
G1 X104.523 Y84.008 E1.37778
G1 X103.988 Y84.008 E.01681
M73 P4 R56
M73 Q4 S57
G1 X135.125 Y115.145 E1.38425
G1 X134.713 Y115.267 E.01351
G1 X103.453 Y84.008 E1.38971
G1 X102.919 Y84.008 E.01681
G1 X134.301 Y115.39 E1.39516
G1 X133.886 Y115.51 E.01357
G1 X102.384 Y84.008 E1.40049
G1 X101.849 Y84.008 E.01681
M73 Q4 S56
G1 X133.444 Y115.603 E1.40461
G1 X133.002 Y115.695 E.0142
G1 X101.315 Y84.008 E1.40874
G1 X100.78 Y84.008 E.01681
G1 X132.555 Y115.783 E1.41261
G1 X132.079 Y115.842 E.01506
G1 X100.245 Y84.008 E1.41525
G1 X99.711 Y84.008 E.01681
G1 X131.604 Y115.901 E1.41788
G1 X131.113 Y115.945 E.01549
G1 X99.176 Y84.008 E1.41983
G1 X98.641 Y84.008 E.01681
G1 X130.6 Y115.966 E1.42078
G1 X130.086 Y115.987 E.01615
G1 X98.107 Y84.008 E1.42172
G1 X97.572 Y84.008 E.01681
G1 X129.556 Y115.992 E1.42192
G1 X129.021 Y115.992 E.01681
G1 X97.037 Y84.008 E1.42192
G1 X96.503 Y84.008 E.01681
G1 X128.487 Y115.992 E1.42192
G1 X127.952 Y115.992 E.01681
G1 X95.968 Y84.008 E1.42192
G1 X95.433 Y84.008 E.01681
M73 P5 R56
M73 Q5 S56
G1 X127.417 Y115.992 E1.42192
G1 X126.883 Y115.992 E.01681
G1 X94.899 Y84.008 E1.42192
G1 X94.364 Y84.008 E.01681
G1 X126.348 Y115.992 E1.42192
G1 X125.813 Y115.992 E.01681
G1 X93.83 Y84.008 E1.42192
G1 X93.295 Y84.008 E.01681
G1 X125.279 Y115.992 E1.42192
G1 X124.744 Y115.992 E.01681
G1 X92.76 Y84.008 E1.42192
G1 X92.226 Y84.008 E.01681
G1 X124.209 Y115.992 E1.42192
G1 X123.675 Y115.992 E.01681
G1 X91.691 Y84.008 E1.42192
G1 X91.156 Y84.008 E.01681
G1 X123.14 Y115.992 E1.42192
G1 X122.605 Y115.992 E.01681
M73 P5 R55
G1 X90.622 Y84.008 E1.42192
G1 X90.087 Y84.008 E.01681
G1 X122.071 Y115.992 E1.42192
G1 X121.536 Y115.992 E.01681
G1 X89.552 Y84.008 E1.42192
G1 X89.018 Y84.008 E.01681
G1 X121.001 Y115.992 E1.42192
G1 X120.467 Y115.992 E.01681
G1 X88.483 Y84.008 E1.42192
G1 X87.948 Y84.008 E.01681
M73 Q5 S55
G1 X119.932 Y115.992 E1.42192
G1 X119.397 Y115.992 E.01681
M73 P6 R55
M73 Q6 S55
G1 X87.414 Y84.008 E1.42192
G1 X86.879 Y84.008 E.01681
G1 X118.863 Y115.992 E1.42192
G1 X118.328 Y115.992 E.01681
G1 X86.344 Y84.008 E1.42192
G1 X85.81 Y84.008 E.01681
G1 X117.793 Y115.992 E1.42192
G1 X117.259 Y115.992 E.01681
G1 X85.275 Y84.008 E1.42192
G1 X84.74 Y84.008 E.01681
G1 X116.724 Y115.992 E1.42192
G1 X116.189 Y115.992 E.01681
G1 X84.206 Y84.008 E1.42192
G1 X83.671 Y84.008 E.01681
G1 X115.655 Y115.992 E1.42192
G1 X115.12 Y115.992 E.01681
G1 X83.136 Y84.008 E1.42192
G1 X82.602 Y84.008 E.01681
G1 X114.585 Y115.992 E1.42192
G1 X114.051 Y115.992 E.01681
G1 X82.067 Y84.008 E1.42192
G1 X81.532 Y84.008 E.01681
G1 X113.516 Y115.992 E1.42192
G1 X112.981 Y115.992 E.01681
G1 X80.998 Y84.008 E1.42192
G1 X80.463 Y84.008 E.01681
G1 X112.447 Y115.992 E1.42192
G1 X111.912 Y115.992 E.01681
G1 X79.928 Y84.008 E1.42192
G1 X79.394 Y84.008 E.01681
G1 X111.377 Y115.992 E1.42192
G1 X110.843 Y115.992 E.01681
M73 P7 R55
M73 Q7 S55
G1 X78.859 Y84.008 E1.42192
G1 X78.324 Y84.008 E.01681
G1 X110.308 Y115.992 E1.42192
G1 X109.773 Y115.992 E.01681
G1 X77.79 Y84.008 E1.42192
G1 X77.255 Y84.008 E.01681
G1 X109.239 Y115.992 E1.42192
G1 X108.704 Y115.992 E.01681
M73 P7 R54
G1 X76.72 Y84.008 E1.42192
G1 X76.186 Y84.008 E.01681
G1 X108.169 Y115.992 E1.42192
G1 X107.635 Y115.992 E.01681
G1 X75.651 Y84.008 E1.42192
G1 X75.116 Y84.008 E.01681
G1 X107.1 Y115.992 E1.42192
G1 X106.565 Y115.992 E.01681
G1 X74.582 Y84.008 E1.42192
G1 X74.047 Y84.008 E.01681
G1 X106.031 Y115.992 E1.42192
M73 Q7 S54
G1 X105.496 Y115.992 E.01681
G1 X73.512 Y84.008 E1.42192
G1 X72.978 Y84.008 E.01681
G1 X104.961 Y115.992 E1.42192
G1 X104.427 Y115.992 E.01681
G1 X72.443 Y84.008 E1.42192
G1 X71.908 Y84.008 E.01681
G1 X103.892 Y115.992 E1.42192
G1 X103.357 Y115.992 E.01681
G1 X71.374 Y84.008 E1.42192
G1 X70.839 Y84.008 E.01681
M73 P8 R54
M73 Q8 S54
G1 X102.823 Y115.992 E1.42192
G1 X102.288 Y115.992 E.01681
G1 X70.304 Y84.008 E1.42192
G1 X69.77 Y84.008 E.01681
G1 X101.753 Y115.992 E1.42192
G1 X101.219 Y115.992 E.01681
G1 X69.235 Y84.008 E1.42192
G1 X68.7 Y84.008 E.01681
G1 X100.684 Y115.992 E1.42192
G1 X100.149 Y115.992 E.01681
G1 X68.166 Y84.008 E1.42192
G1 X67.631 Y84.008 E.01681
G1 X99.615 Y115.992 E1.42192
G1 X99.08 Y115.992 E.01681
G1 X67.096 Y84.008 E1.42192
G1 X66.562 Y84.008 E.01681
G1 X98.545 Y115.992 E1.42192
G1 X98.011 Y115.992 E.01681
G1 X66.027 Y84.008 E1.42192
G1 X65.492 Y84.008 E.01681
G1 X97.476 Y115.992 E1.42192
G1 X96.941 Y115.992 E.01681
G1 X64.958 Y84.008 E1.42192
G1 X64.423 Y84.008 E.01681
G1 X96.407 Y115.992 E1.42192
G1 X95.872 Y115.992 E.01681
G1 X63.888 Y84.008 E1.42192
G1 X63.354 Y84.008 E.01681
G1 X95.337 Y115.992 E1.42192
G1 X94.803 Y115.992 E.01681
M73 P9 R53
G1 X62.819 Y84.008 E1.42192
G1 X62.284 Y84.008 E.01681
M73 Q9 S54
G1 X94.268 Y115.992 E1.42192
G1 X93.733 Y115.992 E.01681
G1 X61.75 Y84.008 E1.42192
G1 X61.215 Y84.008 E.01681
G1 X93.199 Y115.992 E1.42192
G1 X92.664 Y115.992 E.01681
G1 X60.68 Y84.008 E1.42192
G1 X60.146 Y84.008 E.01681
G1 X92.129 Y115.992 E1.42192
G1 X91.595 Y115.992 E.01681
M73 Q9 S53
G1 X59.611 Y84.008 E1.42192
G1 X59.076 Y84.008 E.01681
G1 X91.06 Y115.992 E1.42192
G1 X90.525 Y115.992 E.01681
G1 X58.542 Y84.008 E1.42192
G1 X58.007 Y84.008 E.01681
G1 X89.991 Y115.992 E1.42192
G1 X89.456 Y115.992 E.01681
G1 X57.472 Y84.008 E1.42192
G1 X56.938 Y84.008 E.01681
G1 X88.921 Y115.992 E1.42192
G1 X88.387 Y115.992 E.01681
G1 X56.403 Y84.008 E1.42192
G1 X55.868 Y84.008 E.01681
G1 X87.852 Y115.992 E1.42192
G1 X87.317 Y115.992 E.01681
G1 X55.334 Y84.008 E1.42192
G1 X54.799 Y84.008 E.01681
G1 X86.783 Y115.992 E1.42192
G1 X86.248 Y115.992 E.01681
M73 P10 R53
M73 Q10 S53
G1 X54.264 Y84.008 E1.42192
G1 X53.73 Y84.008 E.01681
G1 X85.713 Y115.992 E1.42192
G1 X85.179 Y115.992 E.01681
G1 X53.195 Y84.008 E1.42192
G1 X52.66 Y84.008 E.01681
G1 X84.644 Y115.992 E1.42192
G1 X84.109 Y115.992 E.01681
G1 X52.126 Y84.008 E1.42192
G1 X51.591 Y84.008 E.01681
G1 X83.575 Y115.992 E1.42192
G1 X83.04 Y115.992 E.01681
G1 X51.07 Y84.022 E1.42132
G1 X51.07 Y84.556 E.01681
G1 X82.505 Y115.992 E1.39755
G1 X81.971 Y115.992 E.01681
G1 X51.07 Y85.091 E1.37378
G1 X51.07 Y85.626 E.01681
G1 X81.436 Y115.992 E1.35001
G1 X80.901 Y115.992 E.01681
M73 P10 R52
G1 X51.07 Y86.16 E1.32624
G1 X51.07 Y86.695 E.01681
G1 X80.367 Y115.992 E1.30247
G1 X79.832 Y115.992 E.01681
G1 X51.07 Y87.23 E1.2787
G1 X51.07 Y87.764 E.01681
G1 X79.297 Y115.992 E1.25493
G1 X78.763 Y115.992 E.01681
G1 X51.07 Y88.299 E1.23116
G1 X51.07 Y88.834 E.01681
G1 X78.228 Y115.992 E1.20739
G1 X77.693 Y115.992 E.01681
M73 P11 R52
