; generated by PrusaSlicer 2.4.0+x64 on 2022-02-27 at 20:51:19 UTC


;
;

;
;
; 

; external perimeters extrusion width = 0.45mm
; perimeters extrusion width = 0.45mm
; infill extrusion width = 0.45mm
; solid infill extrusion width = 0.45mm
; top infill extrusion width = 0.40mm
; first layer extrusion width = 0.42mm

M73 P0 R9
M201 X2500 Y2500 Z400 E5000 ; sets maximum accelerations, mm/sec^2
M203 X180 Y180 Z12 E80 ; sets maximum feedrates, mm/sec
M204 P1250 R1250 T2500 ; sets acceleration (P, T) and retract acceleration (R), mm/sec^2
M205 X8.00 Y8.00 Z2.00 E10.00 ; sets the jerk limits, mm/sec
M205 S0 T0 ; sets the minimum extruding and travel feed rate, mm/sec
M107
;TYPE:Custom
G90 ; use absolute coordinates
M83 ; extruder relative mode
M104 S170 ; set extruder temp for bed leveling
M140 S60 ; set bed temp
M109 R170 ; wait for bed leveling temp
M190 S60 ; wait for bed temp
M204 T1250 ; set travel acceleration
G28 ; home all without mesh bed level
G29 ; mesh bed leveling 
M204 T2500 ; restore travel acceleration
M104 S215 ; set extruder temp
G92 E0
G1 Y-2 X179 F2400
G1 Z3 F720
M109 S215 ; wait for extruder temp

; intro line
G1 X170 F1000
G1 Z0.2 F720
G1 X110 E8 F900
G1 X40 E10 F700
G92 E0

M221 S95 ; set flow
G21 ; set units to millimeters
G90 ; use absolute coordinates
M83 ; use relative distances for extrusion
M900 K0.2 ; Filament gcode LA 1.5
; ; Filament gcode LA 1.0
M107
;LAYER_CHANGE
;Z:0.2
;HEIGHT:0.2
;BEFORE_LAYER_CHANGE
G92 E0.0
;0.2


M73 P1 R9
G1 E-3.2 F4200
M73 P2 R9
G1 Z.2 F720
;AFTER_LAYER_CHANGE
;0.2
G1 Z.4
G1 X65.205 Y81.345 F9000
G1 Z.2 F720
G1 E3.2 F2400
M204 P800
;TYPE:Skirt/Brim
;WIDTH:0.42
G1 F1200
G1 X66.5 Y81.022 E.04186
G1 X106.627 Y81.024 E1.25816
G1 X108.274 Y81.201 E.05194
M73 P3 R9
G1 X109.624 Y81.585 E.04399
G1 X111.117 Y82.302 E.05194
G1 X112.453 Y83.281 E.05194
G1 X113.586 Y84.49 E.05194
G1 X114.42 Y85.782 E.04822
G1 X114.915 Y86.876 E.03768
G1 X115.346 Y88.476 E.05194
G1 X115.476 Y89.873 E.04399
G1 X115.346 Y91.524 E.05194
G1 X114.915 Y93.124 E.05194
G1 X114.198 Y94.617 E.05194
G1 X113.586 Y95.51 E.03396
G1 X112.453 Y96.719 E.05194
G1 X111.117 Y97.698 E.05194
G1 X109.861 Y98.323 E.04399
G1 X108.274 Y98.799 E.05194
G1 X106.5 Y98.978 E.05591
G1 X66.5 Y98.978 E1.25417
G1 X65.083 Y98.586 E.04612
G1 X64.069 Y97.52 E.04612
G1 X63.746 Y96.224 E.04186
G1 X63.746 Y83.776 E.39032
G1 X64.139 Y82.358 E.04612
G1 X65.161 Y81.386 E.04424
M204 P1000
G1 X65.427 Y81.704 F9000
M204 P800
G1 F1200
G1 X65.56 Y81.592 E.00544
G1 X66.5 Y81.399 E.03008
G1 X106.61 Y81.401 E1.25761
G1 X108.188 Y81.568 E.04976
M73 P4 R9
G1 X109.504 Y81.942 E.0429
G1 X110.933 Y82.631 E.04976
G1 X112.212 Y83.571 E.04976
G1 X113.296 Y84.73 E.04976
G1 X114.091 Y85.965 E.04604
G1 X114.558 Y86.996 E.03549
G1 X114.973 Y88.528 E.04976
G1 X115.099 Y89.89 E.0429
G1 X114.973 Y91.472 E.04976
G1 X114.558 Y93.004 E.04976
G1 X113.869 Y94.433 E.04976
G1 X113.296 Y95.27 E.03178
G1 X112.212 Y96.429 E.04976
G1 X110.933 Y97.369 E.04976
G1 X109.504 Y98.058 E.04976
G1 X107.972 Y98.473 E.04976
G1 X106.5 Y98.601 E.04633
G1 X66.5 Y98.601 E1.25417
G1 X65.193 Y98.21 E.04278
G1 X64.317 Y97.164 E.04278
G1 X64.123 Y96.224 E.03008
G1 X64.123 Y83.776 E.39032
G1 X64.515 Y82.469 E.04278
G1 X65.381 Y81.742 E.03546
M204 P1000
; printing object week_5_final_project_prototype v2 id:0 copy 0
G1 E-2.24 F4200
;WIPE_START
G1 F7200
G1 X65.56 Y81.592 E-.12943
G1 X66.5 Y81.399 E-.53172
G1 X66.953 Y81.399 E-.25085
;WIPE_END
M73 P5 R9
G1 E-.048 F4200
G1 Z.4 F720
G1 X67.687 Y85.18 F9000
G1 Z.2 F720
G1 E3.2 F2400
M204 P800
;TYPE:Perimeter
G1 F1200
G1 X106.59 Y85.185 E1.21977
G1 X106.945 Y85.201 E.01114
G1 X107.386 Y85.263 E.01396
G1 X107.819 Y85.365 E.01396
G1 X108.241 Y85.506 E.01396
G1 X108.648 Y85.686 E.01396
G1 X109.037 Y85.903 E.01396
G1 X109.404 Y86.154 E.01396
G1 X109.747 Y86.439 E.01396
G1 X110.061 Y86.753 E.01396
G1 X110.346 Y87.096 E.01396
G1 X110.597 Y87.463 E.01396
G1 X110.814 Y87.852 E.01396
G1 X110.994 Y88.259 E.01396
G1 X111.135 Y88.681 E.01396
G1 X111.237 Y89.114 E.01396
G1 X111.299 Y89.555 E.01396
G1 X111.319 Y90 E.01396
G1 X111.299 Y90.445 E.01396
G1 X111.237 Y90.886 E.01396
G1 X111.135 Y91.319 E.01396
G1 X110.994 Y91.741 E.01396
G1 X110.814 Y92.148 E.01396
G1 X110.597 Y92.537 E.01396
G1 X110.346 Y92.904 E.01396
G1 X110.061 Y93.247 E.01396
G1 X109.747 Y93.561 E.01396
G1 X109.404 Y93.846 E.01396
G1 X109.037 Y94.097 E.01396
G1 X108.648 Y94.314 E.01396
G1 X108.241 Y94.494 E.01396
G1 X107.819 Y94.635 E.01396
G1 X107.386 Y94.737 E.01396
G1 X106.945 Y94.799 E.01396
G1 X106.482 Y94.82 E.01453
G1 X67.287 Y94.82 E1.22892
G1 X67.287 Y85.18 E.30225
G1 X67.627 Y85.18 E.01066
M204 P1000
G1 X66.91 Y84.803 F9000
M204 P800
;TYPE:External perimeter
G1 F1200
G1 X106.599 Y84.808 E1.24441
G1 X106.979 Y84.825 E.01195
M73 P6 R9
G1 X107.455 Y84.892 E.01505
G1 X107.922 Y85.002 E.01505
G1 X108.377 Y85.154 E.01505
G1 X108.816 Y85.348 E.01505
G1 X109.236 Y85.582 E.01505
G1 X109.632 Y85.853 E.01505
G1 X110.001 Y86.16 E.01505
G1 X110.34 Y86.499 E.01505
G1 X110.647 Y86.868 E.01505
G1 X110.918 Y87.264 E.01505
G1 X111.152 Y87.684 E.01505
G1 X111.346 Y88.123 E.01505
G1 X111.498 Y88.578 E.01505
G1 X111.608 Y89.045 E.01505
G1 X111.675 Y89.521 E.01505
G1 X111.697 Y90 E.01505
G1 X111.675 Y90.479 E.01505
G1 X111.608 Y90.955 E.01505
G1 X111.498 Y91.422 E.01505
G1 X111.346 Y91.877 E.01505
G1 X111.152 Y92.316 E.01505
G1 X110.918 Y92.736 E.01505
G1 X110.647 Y93.132 E.01505
G1 X110.34 Y93.501 E.01505
G1 X110.001 Y93.84 E.01505
G1 X109.632 Y94.147 E.01505
G1 X109.236 Y94.418 E.01505
G1 X108.816 Y94.652 E.01505
G1 X108.377 Y94.846 E.01505
G1 X107.922 Y94.998 E.01505
G1 X107.455 Y95.108 E.01505
G1 X106.979 Y95.175 E.01505
G1 X106.491 Y95.197 E.01535
G1 X66.91 Y95.197 E1.24102
G1 X66.91 Y84.863 E.32402
M204 P1000
G1 X67.309 Y84.837 F9000
G1 E-2.24 F4200
;WIPE_START
G1 F7200
G1 X68.556 Y84.861 E-.912
;WIPE_END
G1 E-.048 F4200
G1 Z.4 F720
G1 X108.814 Y85.908 F9000
G1 Z.2 F720
G1 E3.2 F2400
M204 P800
;TYPE:Solid infill
;WIDTH:0.422946
G1 F1200
G1 X109.863 Y86.957 E.04688
G1 X110.12 Y87.266 E.01272
G1 X110.357 Y87.612 E.01324
G1 X110.561 Y87.978 E.01324
G1 X110.73 Y88.361 E.01323
G1 X108.139 Y85.77 E.11578
G1 X107.741 Y85.637 E.01325
M73 P7 R9
G1 X107.384 Y85.553 E.01159
G1 X110.947 Y89.116 E.15921
G1 X111.024 Y89.73 E.01956
G1 X106.77 Y85.476 E.19008
G1 X106.224 Y85.468 E.01726
G1 X111.024 Y90.267 E.21449
G1 X110.97 Y90.751 E.01539
G1 X105.686 Y85.468 E.23612
G1 X105.149 Y85.468 E.01698
G1 X110.874 Y91.193 E.25586
G1 X110.743 Y91.599 E.01349
G1 X104.611 Y85.468 E.27401
G1 X104.074 Y85.467 E.01698
G1 X110.581 Y91.975 E.2908
G1 X110.393 Y92.323 E.01253
G1 X103.536 Y85.467 E.30639
G1 X102.999 Y85.467 E.01698
G1 X110.179 Y92.647 E.32086
G1 X109.942 Y92.948 E.01209
G1 X102.461 Y85.467 E.33429
G1 X101.924 Y85.467 E.01698
G1 X109.682 Y93.226 E.34671
G1 X109.401 Y93.481 E.01202
G1 X101.386 Y85.467 E.35814
G1 X100.849 Y85.467 E.01698
G1 X109.096 Y93.714 E.36855
G1 X108.768 Y93.924 E.0123
M73 P8 R8
G1 X100.311 Y85.467 E.37791
G1 X99.774 Y85.467 E.01698
G1 X108.415 Y94.108 E.38615
G1 X108.034 Y94.265 E.01301
G1 X99.236 Y85.467 E.39316
G1 X98.699 Y85.467 E.01698
G1 X107.623 Y94.391 E.3988
G1 X107.176 Y94.481 E.01442
G1 X98.161 Y85.467 E.40283
G1 X97.624 Y85.467 E.01698
G1 X106.685 Y94.528 E.40491
G1 X106.157 Y94.537 E.01668
G1 X97.086 Y85.467 E.40535
G1 X96.549 Y85.467 E.01698
G1 X105.62 Y94.537 E.40535
G1 X105.082 Y94.537 E.01698
G1 X96.011 Y85.466 E.40536
G1 X95.474 Y85.466 E.01698
M73 P9 R8
G1 X104.545 Y94.537 E.40536
G1 X104.007 Y94.537 E.01698
G1 X94.936 Y85.466 E.40536
G1 X94.399 Y85.466 E.01698
G1 X103.47 Y94.537 E.40537
G1 X102.932 Y94.537 E.01698
G1 X93.861 Y85.466 E.40537
G1 X93.324 Y85.466 E.01698
G1 X102.395 Y94.537 E.40537
G1 X101.858 Y94.537 E.01698
G1 X92.786 Y85.466 E.40537
G1 X92.249 Y85.466 E.01698
G1 X101.32 Y94.537 E.40538
G1 X100.783 Y94.537 E.01698
G1 X91.711 Y85.466 E.40538
G1 X91.174 Y85.466 E.01698
M73 P10 R8
G1 X100.245 Y94.537 E.40538
G1 X99.708 Y94.537 E.01698
G1 X90.636 Y85.466 E.40539
G1 X90.099 Y85.466 E.01698
G1 X99.17 Y94.537 E.40539
G1 X98.633 Y94.537 E.01698
G1 X89.561 Y85.466 E.40539
G1 X89.024 Y85.466 E.01698
G1 X98.095 Y94.537 E.4054
G1 X97.558 Y94.537 E.01698
G1 X88.486 Y85.465 E.4054
G1 X87.949 Y85.465 E.01698
G1 X97.021 Y94.537 E.4054
G1 X96.483 Y94.537 E.01698
G1 X87.411 Y85.465 E.40541
G1 X86.874 Y85.465 E.01698
G1 X95.946 Y94.537 E.40541
G1 X95.408 Y94.537 E.01698
M73 P11 R8
G1 X86.336 Y85.465 E.40541
G1 X85.799 Y85.465 E.01698
G1 X94.871 Y94.537 E.40541
G1 X94.333 Y94.537 E.01698
G1 X85.261 Y85.465 E.40542
G1 X84.724 Y85.465 E.01698
G1 X93.796 Y94.537 E.40542
G1 X93.259 Y94.537 E.01698
G1 X84.186 Y85.465 E.40542
G1 X83.649 Y85.465 E.01698
G1 X92.721 Y94.537 E.40543
G1 X92.184 Y94.537 E.01698
G1 X83.111 Y85.465 E.40543
G1 X82.574 Y85.465 E.01698
G1 X91.646 Y94.537 E.40543
G1 X91.109 Y94.537 E.01698
M73 P12 R8
G1 X82.036 Y85.465 E.40544
G1 X81.499 Y85.465 E.01698
G1 X90.571 Y94.537 E.40544
G1 X90.034 Y94.537 E.01698
G1 X80.961 Y85.465 E.40544
G1 X80.424 Y85.464 E.01698
G1 X89.496 Y94.537 E.40544
G1 X88.959 Y94.537 E.01698
G1 X79.886 Y85.464 E.40545
G1 X79.349 Y85.464 E.01698
G1 X88.422 Y94.537 E.40545
G1 X87.884 Y94.537 E.01698
G1 X78.811 Y85.464 E.40545
G1 X78.274 Y85.464 E.01698
G1 X87.347 Y94.537 E.40546
G1 X86.809 Y94.537 E.01698
G1 X77.736 Y85.464 E.40546
G1 X77.199 Y85.464 E.01698
M73 P13 R8
G1 X86.272 Y94.537 E.40546
G1 X85.734 Y94.537 E.01698
G1 X76.661 Y85.464 E.40547
G1 X76.124 Y85.464 E.01698
G1 X85.197 Y94.537 E.40547
G1 X84.66 Y94.537 E.01698
G1 X75.586 Y85.464 E.40547
G1 X75.049 Y85.464 E.01698
G1 X84.122 Y94.537 E.40547
G1 X83.585 Y94.537 E.01698
G1 X74.511 Y85.464 E.40548
G1 X73.974 Y85.464 E.01698
G1 X83.047 Y94.537 E.40548
G1 X82.51 Y94.537 E.01698
G1 X73.436 Y85.464 E.40548
G1 X72.899 Y85.464 E.01698
G1 X81.972 Y94.537 E.40549
G1 X81.435 Y94.537 E.01698
M73 P14 R8
G1 X72.361 Y85.463 E.40549
G1 X71.824 Y85.463 E.01698
G1 X80.897 Y94.537 E.40549
G1 X80.36 Y94.537 E.01698
G1 X71.286 Y85.463 E.4055
G1 X70.749 Y85.463 E.01698
G1 X79.823 Y94.537 E.4055
G1 X79.285 Y94.537 E.01698
G1 X70.211 Y85.463 E.4055
G1 X69.674 Y85.463 E.01698
G1 X78.748 Y94.537 E.4055
G1 X78.21 Y94.537 E.01698
G1 X69.136 Y85.463 E.40551
G1 X68.599 Y85.463 E.01698
G1 X77.673 Y94.537 E.40551
G1 X77.135 Y94.537 E.01698
M73 P15 R8
G1 X68.061 Y85.463 E.40551
G1 X67.57 Y85.463 E.01552
G1 X67.57 Y85.509 E.00146
G1 X76.598 Y94.537 E.40345
G1 X76.061 Y94.537 E.01698
G1 X67.57 Y86.047 E.37943
G1 X67.57 Y86.584 E.01698
G1 X75.523 Y94.537 E.35541
G1 X74.986 Y94.537 E.01698
G1 X67.57 Y87.121 E.3314
G1 X67.57 Y87.659 E.01698
G1 X74.448 Y94.537 E.30738
G1 X73.911 Y94.537 E.01698
G1 X67.57 Y88.196 E.28336
G1 X67.57 Y88.734 E.01698
G1 X73.373 Y94.537 E.25935
G1 X72.836 Y94.537 E.01698
G1 X67.57 Y89.271 E.23533
G1 X67.57 Y89.809 E.01698
G1 X72.298 Y94.537 E.21131
G1 X71.761 Y94.537 E.01698
G1 X67.57 Y90.346 E.18729
G1 X67.57 Y90.884 E.01698
M73 P16 R8
G1 X71.224 Y94.537 E.16328
G1 X70.686 Y94.537 E.01698
G1 X67.57 Y91.421 E.13926
G1 X67.57 Y91.958 E.01698
G1 X70.149 Y94.537 E.11524
G1 X69.611 Y94.537 E.01698
G1 X67.57 Y92.496 E.09123
G1 X67.57 Y93.033 E.01698
G1 X69.074 Y94.537 E.06721
G1 X68.536 Y94.537 E.01698
G1 X67.57 Y93.571 E.04319
G1 X67.57 Y94.108 E.01698
G1 X68.169 Y94.707 E.02676
M204 P1000
; stop printing object week_5_final_project_prototype v2 id:0 copy 0
M106 S84.15
;LAYER_CHANGE
;Z:0.35
;HEIGHT:0.15
;BEFORE_LAYER_CHANGE
G92 E0.0
;0.35


G1 E-2.24 F4200
;WIPE_START
G1 F7200
G1 X67.57 Y94.108 E-.46925
G1 X67.57 Y93.571 E-.29783
G1 X67.755 Y93.756 E-.14492
;WIPE_END
G1 E-.048 F4200
G1 Z.4 F720
;AFTER_LAYER_CHANGE
;0.35
G1 X63.746 Y93.756 F9000
G1 Z.35 F720
G1 E3.2 F2400
;TYPE:Skirt/Brim
;WIDTH:0.42
G1 X63.746 Y83.776 E.24136
G1 X64.139 Y82.358 E.03557
G1 X65.205 Y81.345 E.03557
G1 X66.5 Y81.022 E.03229
G1 X106.627 Y81.024 E.97047
G1 X108.274 Y81.201 E.04006
G1 X109.624 Y81.585 E.03393
G1 X111.117 Y82.302 E.04006
G1 X112.453 Y83.281 E.04006
G1 X113.586 Y84.49 E.04006
G1 X114.42 Y85.782 E.03719
G1 X114.915 Y86.876 E.02906
G1 X115.346 Y88.476 E.04006
G1 X115.476 Y89.873 E.03393
G1 X115.346 Y91.524 E.04006
G1 X114.915 Y93.124 E.04006
G1 X114.198 Y94.617 E.04006
G1 X113.586 Y95.51 E.0262
G1 X112.453 Y96.719 E.04006
G1 X111.117 Y97.698 E.04006
G1 X109.861 Y98.323 E.03393
G1 X108.274 Y98.799 E.04006
G1 X106.5 Y98.978 E.04313
G1 X66.5 Y98.978 E.9674
G1 X65.083 Y98.586 E.03557
G1 X64.069 Y97.52 E.03557
G1 X63.746 Y96.224 E.03229
G1 X63.746 Y93.816 E.05825
G1 X64.123 Y93.816 F9000
G1 F2400
G1 X64.123 Y83.776 E.24281
G1 X64.515 Y82.469 E.033
G1 X65.56 Y81.592 E.033
G1 X66.5 Y81.399 E.02321
G1 X106.61 Y81.401 E.97005
G1 X108.188 Y81.568 E.03838
M73 P17 R8
G1 X109.504 Y81.942 E.03309
G1 X110.933 Y82.631 E.03838
G1 X112.212 Y83.571 E.03838
G1 X113.296 Y84.73 E.03838
G1 X114.091 Y85.965 E.03551
G1 X114.558 Y86.996 E.02738
G1 X114.973 Y88.528 E.03838
G1 X115.099 Y89.89 E.03309
G1 X114.973 Y91.472 E.03838
G1 X114.558 Y93.004 E.03838
G1 X113.869 Y94.433 E.03838
G1 X113.296 Y95.27 E.02451
G1 X112.212 Y96.429 E.03838
G1 X110.933 Y97.369 E.03838
G1 X109.504 Y98.058 E.03838
G1 X107.972 Y98.473 E.03838
G1 X106.5 Y98.601 E.03574
G1 X66.5 Y98.601 E.9674
G1 X65.193 Y98.21 E.033
G1 X64.317 Y97.164 E.033
G1 X64.123 Y96.224 E.02321
G1 X64.123 Y93.876 E.0568
; printing object week_5_final_project_prototype v2 id:0 copy 0
G1 E-2.24 F4200
;WIPE_START
G1 F7200
G1 X64.123 Y92.23 E-.912
;WIPE_END
G1 E-.048 F4200
G1 Z.55 F720
G1 X67.143 Y93.476 F9000
G1 Z.35 F720
G1 E3.2 F2400
M204 P800
;TYPE:Perimeter
;WIDTH:0.45
G1 X67.143 Y84.633 E.23041
G1 X106.485 Y84.633 E1.02509
G1 X106.976 Y84.655 E.0128
G1 X107.487 Y84.725 E.01345
G1 X107.969 Y84.838 E.01289
G1 X108.439 Y84.996 E.01292
G1 X108.892 Y85.196 E.01292
G1 X109.325 Y85.437 E.01292
G1 X109.734 Y85.717 E.01292
G1 X110.115 Y86.034 E.01292
G1 X110.466 Y86.385 E.01292
G1 X110.783 Y86.766 E.01292
G1 X111.063 Y87.175 E.01292
G1 X111.304 Y87.608 E.01292
G1 X111.504 Y88.061 E.01292
G1 X111.662 Y88.531 E.01292
G1 X111.775 Y89.014 E.01292
G1 X111.844 Y89.505 E.01292
G1 X111.867 Y90 E.01292
G1 X111.844 Y90.494 E.01289
G1 X111.771 Y91.005 E.01345
G1 X111.662 Y91.469 E.01241
G1 X111.504 Y91.939 E.01292
G1 X111.304 Y92.392 E.01292
G1 X111.063 Y92.825 E.01292
G1 X110.783 Y93.234 E.01292
G1 X110.466 Y93.615 E.01292
G1 X110.115 Y93.966 E.01292
G1 X109.734 Y94.283 E.01292
G1 X109.325 Y94.563 E.01292
G1 X108.892 Y94.804 E.01292
G1 X108.439 Y95.004 E.01292
G1 X107.969 Y95.162 E.01292
G1 X107.486 Y95.275 E.01292
G1 X106.995 Y95.344 E.01292
G1 X106.485 Y95.367 E.0133
G1 X67.143 Y95.367 E1.02509
G1 X67.143 Y93.536 E.04772
M204 P1000
G1 X66.725 Y93.876 F9000
M204 P800
;TYPE:External perimeter
G1 F1800
G1 X66.725 Y84.215 E.25172
G1 X106.495 Y84.215 E1.03623
M73 P18 R8
G1 X107.014 Y84.239 E.01353
G1 X107.563 Y84.314 E.01445
G1 X108.083 Y84.436 E.01391
G1 X108.59 Y84.606 E.01392
G1 X109.079 Y84.822 E.01392
G1 X109.545 Y85.082 E.01392
G1 X109.986 Y85.384 E.01392
G1 X110.397 Y85.725 E.01392
G1 X110.775 Y86.103 E.01392
G1 X111.116 Y86.514 E.01392
G1 X111.418 Y86.955 E.01392
G1 X111.678 Y87.421 E.01392
G1 X111.894 Y87.91 E.01392
G1 X112.064 Y88.417 E.01392
G1 X112.186 Y88.937 E.01392
G1 X112.26 Y89.466 E.01392
G1 X112.285 Y90 E.01392
G1 X112.26 Y90.533 E.01391
G1 X112.182 Y91.083 E.01445
M73 P18 R7
G1 X112.064 Y91.583 E.0134
G1 X111.894 Y92.09 E.01392
G1 X111.678 Y92.579 E.01392
G1 X111.418 Y93.045 E.01392
G1 X111.116 Y93.486 E.01392
G1 X110.775 Y93.897 E.01392
G1 X110.397 Y94.275 E.01392
G1 X109.986 Y94.616 E.01392
G1 X109.545 Y94.918 E.01392
G1 X109.079 Y95.178 E.01392
G1 X108.59 Y95.394 E.01392
G1 X108.083 Y95.564 E.01392
G1 X107.563 Y95.686 E.01392
G1 X107.034 Y95.76 E.01392
G1 X106.495 Y95.785 E.01406
G1 X66.725 Y95.785 E1.03623
G1 X66.725 Y93.936 E.04819
M204 P1000
G1 X66.931 Y93.532 F9000
G1 E-2.24 F4200
;WIPE_START
G1 F7200
G1 X66.725 Y92.29 E-.912
;WIPE_END
G1 E-.048 F4200
G1 Z.55 F720
G1 X111.057 Y92.578 F9000
G1 Z.35 F720
G1 E3.2 F2400
;TYPE:Solid infill
;WIDTH:0.454415
G1 F4800
G1 X109.885 Y93.75 E.04362
G1 X109.545 Y94.032 E.01165
G1 X109.16 Y94.296 E.01229
